X:24
T:Jerry's 46th
R:jig
C:Paul S. Cranford
O:Cape Breton Island
S:http://www.cranfordpub.com
D:currently unrecorded
B:currently unpublished in book form
Z:psc, (re-formatted,updated 9/17/04)
N:
H:                                                        copyrights Cranford Publications, SOCAN
L:1/8
Q:300
M:6/8
K:Bb
z|F2 d cBA|BFD EFE|DF=E Ff=e|gfd cBG|
F2 d cBA|BFD EFE|DF=E Ged|ecA B2:|
|:g|f2 g fdB|ceg fga|bab fdB|1ede ceg|
f2 g fdB|ceg fba|bfd ced|ecA B2:|
[2ede cAF|D2 d E2 e|FAc Bba|bf=e f_ed|ecA B2|]
